X: 1
T: Rooney's Favourite
M: 6/8
L: 1/8
R: jig
K: Gmaj
|:d|GAB cAA|dcA G2g|gfd cAG|ADE FGA|
~B3 ~c3|dcA ~d3|~g3 afd|cAd G2:|
|:D|GBd gfg|dBG GAB|c2=f fef|~c3 =fcA|
[1d2g gfg|dcA =f3|g=fd cAF|AGF G2:|
[2B2G c2A|dcA ~d3|~g3 afd|cAF G2||
